X:1
T:J. S. Bach
T:BWV 933 Little Prelude in C Major (A = 415 Hz)
T:Six Little Preludes No. 1
%%score { ( 1 2 3 ) | 4 }
L:1/8
M:4/4
K:C
V:1 treble 
V:2 treble 
V:3 treble 
V:4 bass 
V:1
 E2 z F G2 z c | F/4E/4F/F dF G/4F/4G/4F/4E z2 | D/4C/4D3/2 z E F/4E/4F3/2 z F | %3
 EG G/F/G/A/ E/4D/4C/4D/4E/4D/4E/4D/4 z/ G/B/d/ | e/d/c/B/ A/G/^F/E/ F/D/F/A/ F/D/F/A/ | %5
 d/c/B/A/ G/^F/E/D/ E/C/E/G/ E/C/E/G/ | c/B/A/G/ ^F/G/A/F/ D/E/F/G/ A/B/c/A/ | %7
 dG B/A/G/^F/ G/D/B, z2 | E2 z F G2 z c | F/4E/4F/F dF G/4F/4G/4F/4E z2 | %10
 D/4C/4D3/2 z E F/4E/4F3/2 z F | EG G/F/G/A/ E/4D/4C/4D/4E/4D/4E/4D/4 z/ G/B/d/ | %12
 e/d/c/B/ A/G/^F/E/ F/D/F/A/ F/D/F/A/ | d/c/B/A/ G/^F/E/D/ E/C/E/G/ E/C/E/G/ | %14
 c/B/A/G/ ^F/G/A/F/ D/E/F/G/ A/B/c/A/ | dG B/A/G/^F/ G/D/B, z2 | B2 z c d2 z e | ff fe dc z2 | %18
 [cg]2 z _B B/4A/4B/4A/4B/4A/4B/4A/4 z a | bc' fe{f} ed z/ G/B/d/ | %20
 g/f/e/d/ c/_B/A/G/ A/F/A/c/ A/F/A/c/ | f/e/d/c/ B/A/G/F/ G/F/G/d/ G/F/G/d/ | %22
 e/d/c/B/ A/G/F/E/ D/F/A/c/ B/G/B/d/ | gc e/d/c/B/ c/G/E/C/ z2 | B2 z c d2 z e | ff fe dc z2 | %26
 [cg]2 z _B B/4A/4B/4A/4B/4A/4B/4A/4 z a | bc' fe{f} ed z/ G/B/d/ | %28
 g/f/e/d/ c/_B/A/G/ A/F/A/c/ A/F/A/c/ | f/e/d/c/ B/A/G/F/ G/F/G/d/ G/F/G/d/ | %30
 e/d/c/B/ A/G/F/E/ D/F/A/c/ B/G/B/d/ | gc e/d/c/B/ c/G/E/C/ !fermata!z2 |] %32
V:2
 C/4B,/4C3/2 z D E/4D/4E3/2 z E | DD z D DC z2 | B,2 z C D2 z D | CE CC{C} B,2 z2 | x8 | x8 | x8 | %7
 x8 | C/4B,/4C3/2 z D E/4D/4E3/2 z E | DD z D DC z2 | B,2 z C D2 z D | CE CC{C} B,2 z2 | x8 | x8 | %14
 x8 | x8 | G/4F/4G3/2 z A B/4A/4B3/2 z c | dd dc BA z2 | G2 z G F2 z c | fe dc cB z2 | x8 | x8 | %22
 x8 | x8 | G/4F/4G3/2 z A B/4A/4B3/2 z c | dd dc BA z2 | G2 z G F2 z c | fe dc cB z2 | x8 | x8 | %30
 x8 | x8 |] %32
V:3
 G,2 z2 C2 z2 | x8 | x8 | x8 | x8 | x8 | x8 | x8 | G,2 z2 C2 z2 | x8 | x8 | x8 | x8 | x8 | x8 | %15
 x8 | D2 z2 G2 z2 | x8 | x8 | x8 | x8 | x8 | x8 | x8 | D2 z2 G2 z2 | x8 | x8 | x8 | x8 | x8 | x8 | %31
 x8 |] %32
V:4
 z/ C,,/E,,/G,,/ C,2 z/ C,,/E,,/G,,/ C,2 | %1
 z/ C,/D,/C,/ B,,/D,/G,,/B,,/ C,/C,,/E,,/G,,/ C,/D,/E,/F,/ | %2
 G,/G,,/B,,/D,/ G,2 z/ G,,/B,,/D,/ G,2 | z/ G,,/C,/E,/ E,,F,, G,,/G,/D,/B,,/ G,,G, | %4
 C,G,C,A, D,A,C,A, | B,,A,B,,G, C,G,B,,G, | A,,G,A,,G, ^F,A,F,D, | B,,E,C,D, G, z/ G,/ G,,2 | %8
 z/ C,,/E,,/G,,/ C,2 z/ C,,/E,,/G,,/ C,2 | %9
 z/ C,/D,/C,/ B,,/D,/G,,/B,,/ C,/C,,/E,,/G,,/ C,/D,/E,/F,/ | %10
 G,/G,,/B,,/D,/ G,2 z/ G,,/B,,/D,/ G,2 | z/ G,,/C,/E,/ E,,F,, G,,/G,/D,/B,,/ G,,G, | %12
 C,G,C,A, D,A,C,A, | B,,A,B,,G, C,G,B,,G, | A,,G,A,,G, ^F,A,F,D, | B,,E,C,D, G, z/ G,/ G,,2 | %16
 z/ G,,/B,,/D,/ G,/4F,/4G,3/2 z/ G,,/B,,/D,/ G,/4F,/4G,3/2 | %17
 z/ A,/B,/A,/ ^G,/B,/E,/G,/ A,/A,,/C,/E,/ A,/B,/C/D/ | E/E,/G,/C/ E2 z/ F,/A,/C/ F/E/F/E/ | %19
 D/C/D/C/ B,/G,/C/E/ G/^F/G/D/ B,/D/G,/B,/ | E,CE,C F,CE,C | D,B,C,A, B,,F,E,D, | %22
 C,E,F,A, F,D,G,F, | E,A,F,G, C,2 C,,2 | %24
 z/ G,,/B,,/D,/ G,/4F,/4G,3/2 z/ G,,/B,,/D,/ G,/4F,/4G,3/2 | %25
 z/ A,/B,/A,/ ^G,/B,/E,/G,/ A,/A,,/C,/E,/ A,/B,/C/D/ | E/E,/G,/C/ E2 z/ F,/A,/C/ F/E/F/E/ | %27
 D/C/D/C/ B,/G,/C/E/ G/^F/G/D/ B,/D/G,/B,/ | E,CE,C F,CE,C | D,B,C,A, B,,F,E,D, | %30
 C,E,F,A, F,D,G,F, | E,A,F,G, C,2 !fermata!C,,2 |] %32

